X:1
T: King of Spades
C:Muriel A Johnstone
R:Jig
%Q:180
K:D
M:6/8
L:1/16
F2E2D2A4D2|F2E2D2d6|B6A6|G2F2G2 E2F2G2|F2E2D2A4D2|F2E2D2d6|B6A4d2|e2f2e2d6|
F2E2D2A4D2|F2E2D2d6|B6A6|G2F2G2 E2F2G2|F2E2D2A4D2|F2E2D2d6|B6A4d2|e2f2e2d6|
d6c6|B6A6|G2F2E2 E2F2G2|A2B2c2 c2d2e2|d6c6|B6A6|G2F2E2 e2f2e2|d6d2A2c2|
d4F2c4F2|B4D2A4D2|G2F2E2 E2F2G2|A2B2c2 c2d2e2|F2E2D2A4D2|F2E2D2d6|e6e2f2e2|d6d6||
